wolterwythe/images/twitter.svg

<svg width="25" height="20" viewBox="0 0 25 20" fill="none" xmlns="http://www.w3.org/2000/svg">
<path d="M24.5386 2.397C23.6393 2.79547 22.6733 3.0647 21.6578 3.18639C22.7056 2.5594 23.4896 1.57258 23.8633 0.410082C22.8788 0.99484 21.8014 1.40645 20.6778 1.62701C19.9222 0.820245 18.9214 0.28551 17.8307 0.105824C16.7401 -0.0738634 15.6207 0.11155 14.6462 0.633277C13.6717 1.155 12.8968 1.98386 12.4416 2.99115C11.9865 3.99844 11.8767 5.12781 12.1292 6.20393C10.1344 6.10377 8.18292 5.58529 6.40147 4.68213C4.62002 3.77898 3.04838 2.51133 1.78855 0.961467C1.35778 1.70454 1.11009 2.56608 1.11009 3.48362C1.10961 4.30962 1.31302 5.12296 1.70227 5.85149C2.09152 6.58001 2.65457 7.2012 3.34148 7.65993C2.54485 7.63458 1.7658 7.41932 1.06917 7.03208V7.0967C1.06909 8.25519 1.46982 9.37803 2.20337 10.2747C2.93691 11.1714 3.95809 11.7866 5.09363 12.0161C4.35463 12.2161 3.57984 12.2455 2.82778 12.1022C3.14817 13.099 3.77224 13.9707 4.61264 14.5952C5.45304 15.2197 6.46769 15.5658 7.51455 15.585C5.73745 16.9801 3.54274 17.7368 1.28348 17.7335C0.883271 17.7336 0.483404 17.7102 0.0859375 17.6635C2.37922 19.138 5.04877 19.9205 7.77517 19.9175C17.0044 19.9175 22.0498 12.2735 22.0498 5.64393C22.0498 5.42854 22.0444 5.211 22.0347 4.99562C23.0161 4.2859 23.8632 3.40705 24.5364 2.40024L24.5386 2.397Z" fill="url(#paint0_linear_779_3152)"/>
<defs>
<linearGradient id="paint0_linear_779_3152" x1="0.0859375" y1="9.97826" x2="24.7853" y2="10.0535" gradientUnits="userSpaceOnUse">
<stop stop-color="#4C27C1"/>
<stop offset="1" stop-color="#F761DF"/>
</linearGradient>
</defs>
</svg>

<svg width="25" height="20" viewBox="0 0 25 20" fill="none" xmlns="http://www.w3.org/2000/svg"><path d="M24.539 2.397c-.9.398-1.866.668-2.881.79A5.03 5.03 0 0023.863.41c-.984.585-2.062.996-3.185 1.217a5.018 5.018 0 00-8.549 4.577A14.247 14.247 0 011.79.96a5.014 5.014 0 00-.679 2.523A5.018 5.018 0 003.341 7.66a5.005 5.005 0 01-2.272-.628v.065a5.018 5.018 0 004.025 4.92c-.74.2-1.514.229-2.266.085a5.02 5.02 0 004.687 3.483 10.067 10.067 0 01-6.232 2.148c-.4 0-.8-.023-1.197-.07a14.189 14.189 0 007.69 2.255c9.228 0 14.274-7.644 14.274-14.274 0-.215-.006-.433-.015-.648A10.199 10.199 0 0024.536 2.4l.003-.003z" fill="url(#paint0_linear_779_3152)"/><defs><linearGradient id="paint0_linear_779_3152" x1=".086" y1="9.978" x2="24.785" y2="10.053" gradientUnits="userSpaceOnUse"><stop stop-color="#4C27C1"/><stop offset="1" stop-color="#F761DF"/></linearGradient></defs></svg>
